X:31
T:Go to the windward my love
T:Beautiful
Z:Jack Campin - http://www.campin.me.uk
S:Blaikie MS (NLS MS.1578) p12, Blaikie #30
M:C
L:1/8
V:1 midi program 1 74
V:2 midi program 1 46 bass middle = d transpose -24
Q:1/4=80
K:A Minor
[V:1]     A2 A>G E2 E>E|c>ed>B G4         |A2 AB c>Bcd|e4 z2
[V:2]     a2 A2  e2 e2 |c2 g2 [g2b2][g2b2]|a2 a2 g2 f2|e4 E2
%
[V:1] c>d|ee e>d d2 dd |cc`cA  B2    B/c/d|e2 AG E2 G2|A4 z2|]
[V:2] z2 |c'2g2  b2 g2 |a2^f2  g2    g2   |c2 d2 e2 e2|A4 z2|]
W:Transcription (c) Jack Campin 2009, no mirroring or republication without permission

